static/svg/teleport.svg

<svg width="139" height="33" viewBox="0 0 139 33" fill="none" xmlns="http://www.w3.org/2000/svg">
<path fill-rule="evenodd" clip-rule="evenodd" d="M122.142 22.4576H121.145C120.752 22.4576 120.39 22.4576 120.118 22.4274C119.816 22.3972 119.513 22.3669 119.211 22.3065C118.909 22.2461 118.637 22.1554 118.426 22.0346C118.214 21.9137 118.003 21.7626 117.791 21.5813C117.58 21.4 117.429 21.1583 117.308 20.9166C117.187 20.6446 117.096 20.3425 117.036 19.9799C116.975 19.6173 116.945 19.1942 116.945 18.7108V13.8762H114.8V12.2143H117.036V9.797L119.393 9.07181V12.2143H122.052V13.8762H119.393V18.8619C119.393 19.1942 119.423 19.436 119.453 19.6475C119.513 19.859 119.574 20.0101 119.665 20.1309C119.755 20.2518 119.937 20.3425 120.178 20.4029C120.42 20.4633 120.662 20.4935 120.964 20.5237C121.236 20.554 121.629 20.554 122.142 20.554V22.4576V22.4576ZM107.336 22.4576V14.7827C107.336 14.3899 107.306 13.9668 107.276 13.5438C107.246 13.1208 107.215 12.7884 107.185 12.5467L107.125 12.1841H109.754V13.5438C110.146 12.9999 110.569 12.6071 110.962 12.3352C111.355 12.0632 111.808 11.9423 112.322 11.9423C112.624 11.9423 112.957 12.0028 113.349 12.0934V14.269C112.896 14.1179 112.503 14.0575 112.111 14.0575C111.416 14.0575 110.872 14.269 110.449 14.7222C110.026 15.1755 109.814 15.81 109.814 16.6561V22.4878H107.336V22.4576ZM100.326 20.6748C100.81 20.6748 101.233 20.5842 101.595 20.4029C101.958 20.2216 102.26 19.9799 102.472 19.6475C102.683 19.3151 102.834 18.9525 102.925 18.5597C103.015 18.1669 103.076 17.7439 103.076 17.2906C103.076 16.3237 102.834 15.5079 102.381 14.8733C101.928 14.2388 101.233 13.9366 100.326 13.9366C99.7219 13.9366 99.178 14.0877 98.755 14.3899C98.3319 14.692 98.0298 15.115 97.8485 15.5985C97.6672 16.082 97.5765 16.6561 97.5765 17.2906C97.5765 17.9252 97.6672 18.469 97.8485 18.9525C98.0298 19.436 98.3319 19.859 98.755 20.1914C99.1478 20.5237 99.6917 20.6748 100.326 20.6748ZM100.356 22.6993C99.4801 22.6993 98.6643 22.5482 97.9693 22.2763C97.2744 21.9741 96.7003 21.5813 96.2772 21.0979C95.8542 20.6144 95.5218 20.0403 95.3103 19.4057C95.0988 18.7712 94.9779 18.0762 94.9779 17.351C94.9779 16.5956 95.0988 15.9309 95.3103 15.2661C95.5218 14.6316 95.8542 14.0575 96.3074 13.5438C96.7305 13.0603 97.3046 12.6675 97.9996 12.3654C98.6945 12.0632 99.4801 11.9423 100.356 11.9423C101.233 11.9423 102.049 12.0934 102.713 12.3654C103.408 12.6373 103.952 13.0301 104.375 13.5438C104.798 14.0273 105.1 14.6014 105.312 15.2661C105.523 15.9007 105.614 16.6259 105.614 17.3813C105.614 18.1065 105.493 18.7712 105.282 19.4057C105.07 20.0403 104.738 20.6144 104.315 21.0979C103.892 21.6115 103.348 22.0043 102.653 22.2763C102.018 22.5482 101.233 22.6993 100.356 22.6993ZM83.4656 26.4159V15.6287C83.4656 15.0244 83.4051 13.8762 83.2843 12.1841H85.9131V13.6647C86.0037 13.3021 86.3361 12.9093 86.9102 12.5165C87.4843 12.1236 88.2095 11.9423 89.0556 11.9423C89.962 11.9423 90.7477 12.1841 91.4426 12.6978C92.1376 13.1812 92.6513 13.846 92.9837 14.6316C93.3463 15.4172 93.4973 16.2935 93.4973 17.2302C93.4973 17.9252 93.4067 18.6201 93.1952 19.2547C92.9837 19.8892 92.7117 20.4935 92.3189 21.0072C91.9261 21.5209 91.4426 21.9439 90.8685 22.2461C90.2642 22.5482 89.6297 22.6993 88.9045 22.6993C88.0886 22.6993 87.4239 22.518 86.8498 22.1252C86.2757 21.7324 85.9735 21.4 85.8829 21.0676V26.4461H83.4656V26.4159ZM88.3606 20.6748C88.8138 20.6748 89.2066 20.5842 89.5692 20.4029C89.9016 20.2216 90.1736 19.9799 90.3851 19.6475C90.5664 19.3151 90.7174 18.9827 90.8383 18.5899C90.929 18.1971 90.9894 17.7741 90.9894 17.3208C90.9894 16.6863 90.8987 16.1122 90.7174 15.6287C90.5361 15.1453 90.2642 14.7222 89.8412 14.4201C89.4484 14.1179 88.9347 13.9366 88.3606 13.9366C87.7865 13.9366 87.303 14.0877 86.9102 14.3899C86.5174 14.692 86.2152 15.0848 86.0642 15.5683C85.8829 16.0517 85.7922 16.5956 85.7922 17.2302C85.7922 17.6834 85.8526 18.1367 85.9433 18.5295C86.0339 18.9223 86.185 19.2849 86.3965 19.6173C86.608 19.9496 86.88 20.1914 87.2124 20.3727C87.5145 20.5842 87.9073 20.6748 88.3606 20.6748ZM77.3317 22.6993C75.6093 22.6993 74.2496 22.2159 73.2525 21.2187C72.2553 20.2216 71.7719 18.9525 71.7719 17.351C71.7719 16.6259 71.8927 15.9309 72.1345 15.2963C72.3762 14.6618 72.7086 14.0877 73.1316 13.574C73.5546 13.0603 74.1287 12.6675 74.7935 12.3956C75.4583 12.0934 76.2137 11.9423 76.9993 11.9423C77.8151 11.9423 78.5101 12.0934 79.1144 12.3654C79.7187 12.6373 80.2022 13.0301 80.5346 13.5438C80.8972 14.0575 81.1389 14.6014 81.3202 15.2359C81.5015 15.8705 81.5619 16.5654 81.5619 17.3208C81.5619 17.5021 81.5317 17.6532 81.5015 17.7741H74.3403C74.3705 18.7712 74.6726 19.5266 75.2467 20.0101C75.8209 20.4935 76.5763 20.7353 77.513 20.7353C78.6007 20.7353 79.6885 20.3727 80.7461 19.6475L81.4109 21.4605C80.7763 21.9137 80.1116 22.2461 79.477 22.4576C78.8727 22.5784 78.1475 22.6993 77.3317 22.6993ZM74.4309 16.082H79.5072C79.3864 15.3568 79.1144 14.7827 78.6914 14.4201C78.2684 14.0273 77.7547 13.846 77.1504 13.846C76.4252 13.846 75.8511 14.0575 75.3676 14.4503C74.8842 14.8431 74.582 15.387 74.4309 16.082ZM67.5416 7.86316H69.9891V22.4576H67.5416V7.86316ZM61.5588 22.6993C59.8365 22.6993 58.4768 22.2159 57.4796 21.2187C56.4825 20.2216 55.999 18.9525 55.999 17.351C55.999 16.6259 56.1199 15.9309 56.3616 15.2963C56.6034 14.6618 56.9357 14.0877 57.3588 13.574C57.7818 13.0603 58.3559 12.6675 59.0206 12.3956C59.6854 12.0934 60.4408 11.9423 61.2264 11.9423C62.0423 11.9423 62.7372 12.0934 63.3416 12.3654C63.9459 12.6373 64.4293 13.0301 64.7617 13.5438C65.1243 14.0575 65.3661 14.6014 65.5474 15.2359C65.7286 15.8705 65.7891 16.5654 65.7891 17.3208C65.7891 17.5021 65.7589 17.6532 65.7286 17.7741H58.5674C58.5976 18.7712 58.8998 19.5266 59.4739 20.0101C60.048 20.4935 60.8034 20.7353 61.7401 20.7353C62.8279 20.7353 63.9157 20.3727 64.9732 19.6475L65.638 21.4605C65.0035 21.9137 64.3387 22.2461 63.7042 22.4576C63.0998 22.5784 62.3746 22.6993 61.5588 22.6993ZM58.6581 16.082H63.7344C63.6135 15.3568 63.3416 14.7827 62.9185 14.4201C62.4955 14.0273 61.9818 13.846 61.3775 13.846C60.6523 13.846 60.0782 14.0575 59.5948 14.4503C59.1415 14.8431 58.8091 15.387 58.6581 16.082ZM54.5789 22.4576H53.5817C53.1889 22.4576 52.8263 22.4576 52.5544 22.4274C52.2522 22.3972 51.9501 22.3669 51.6479 22.3065C51.3457 22.2461 51.0738 22.1554 50.8623 22.0346C50.6508 21.9137 50.4392 21.7626 50.2277 21.5813C50.0162 21.4 49.8651 21.1583 49.7443 20.9166C49.6234 20.6446 49.5328 20.3425 49.4723 19.9799C49.4119 19.6173 49.3817 19.1942 49.3817 18.7108V13.8762H47.2363V12.2143H49.4723V9.797L51.8292 9.07181V12.2143H54.4882V13.8762H51.8292V18.8619C51.8292 19.1942 51.8594 19.436 51.8896 19.6475C51.9501 19.859 52.0105 20.0101 52.1011 20.1309C52.1918 20.2518 52.3731 20.3425 52.6148 20.4029C52.8565 20.4633 53.0983 20.4935 53.4004 20.5237C53.6724 20.554 54.0652 20.554 54.5789 20.554V22.4576V22.4576Z" fill="#24272E"/>
<path fill-rule="evenodd" clip-rule="evenodd" d="M133.866 9.91785C133.866 10.6128 133.987 11.1265 134.259 11.4589C134.531 11.7913 134.894 11.9726 135.438 11.9726C136.465 11.9726 137.009 11.2776 137.009 9.91785C137.009 8.5279 136.495 7.83293 135.468 7.83293C134.954 7.83293 134.561 8.01423 134.289 8.34661C134.017 8.7092 133.866 9.22288 133.866 9.91785ZM138.369 9.91785C138.369 10.643 138.248 11.2474 137.976 11.7308C137.734 12.2143 137.341 12.5769 136.858 12.7884L138.338 14.4503H136.676L135.558 13.0603H135.468C134.531 13.0603 133.806 12.7884 133.292 12.2445C132.779 11.7006 132.537 10.915 132.537 9.88763C132.537 8.86028 132.779 8.07466 133.292 7.56099C133.806 7.01709 134.531 6.74515 135.468 6.74515C136.405 6.74515 137.13 7.01709 137.643 7.56099C138.097 8.10488 138.369 8.8905 138.369 9.91785ZM131.238 12.9999H129.938V10.3409H127.521V12.9999H126.222V6.8358H127.521V9.25309H129.938V6.8358H131.238V12.9999Z" fill="#24272E"/>
<mask id="mask0" mask-type="alpha" maskUnits="userSpaceOnUse" x="0" y="0" width="33" height="33">
<rect x="0.368164" y="0.235718" width="32.5472" height="32.5472" rx="16.2736" fill="white"/>
</mask>
<g mask="url(#mask0)">
<g filter="url(#filter0_i)">
<rect x="0.368164" y="0.235718" width="32.5472" height="32.5472" rx="16.2736" fill="url(#paint0_linear)"/>
</g>
<g filter="url(#filter1_d)">
<rect x="12.7363" y="11.5484" width="24.2786" height="24.2786" rx="5" transform="rotate(-16.1573 12.7363 11.5484)" fill="url(#paint1_linear)"/>
</g>
<g filter="url(#filter2_d)">
<path d="M21.6623 20.4797L0.736783 27.8552C-3.12178 29.2152 -6.89145 25.6181 -5.71364 21.7001L0.0390651 2.56349C1.04936 -0.79729 5.11698 -2.09886 7.89062 0.0511279L23.0634 11.8123C26.192 14.2374 25.3956 19.1638 21.6623 20.4797Z" fill="url(#paint2_linear)"/>
</g>
</g>
<defs>
<filter id="filter0_i" x="0.368164" y="0.235718" width="32.5472" height="32.5472" filterUnits="userSpaceOnUse" color-interpolation-filters="sRGB">
<feFlood flood-opacity="0" result="BackgroundImageFix"/>
<feBlend mode="normal" in="SourceGraphic" in2="BackgroundImageFix" result="shape"/>
<feColorMatrix in="SourceAlpha" type="matrix" values="0 0 0 0 0 0 0 0 0 0 0 0 0 0 0 0 0 0 127 0" result="hardAlpha"/>
<feOffset/>
<feGaussianBlur stdDeviation="1"/>
<feComposite in2="hardAlpha" operator="arithmetic" k2="-1" k3="1"/>
<feColorMatrix type="matrix" values="0 0 0 0 0 0 0 0 0 0 0 0 0 0 0 0 0 0 0.25 0"/>
<feBlend mode="normal" in2="shape" result="effect1_innerShadow"/>
</filter>
<filter id="filter1_d" x="8.73633" y="1.79233" width="38.0757" height="38.0757" filterUnits="userSpaceOnUse" color-interpolation-filters="sRGB">
<feFlood flood-opacity="0" result="BackgroundImageFix"/>
<feColorMatrix in="SourceAlpha" type="matrix" values="0 0 0 0 0 0 0 0 0 0 0 0 0 0 0 0 0 0 127 0"/>
<feOffset dy="1"/>
<feGaussianBlur stdDeviation="2"/>
<feColorMatrix type="matrix" values="0 0 0 0 0 0 0 0 0 0 0 0 0 0 0 0 0 0 0.05 0"/>
<feBlend mode="normal" in2="BackgroundImageFix" result="effect1_dropShadow"/>
<feBlend mode="normal" in="SourceGraphic" in2="effect1_dropShadow" result="shape"/>
</filter>
<filter id="filter2_d" x="-16.6758" y="-8.83484" width="47.0611" height="43.3551" filterUnits="userSpaceOnUse" color-interpolation-filters="sRGB">
<feFlood flood-opacity="0" result="BackgroundImageFix"/>
<feColorMatrix in="SourceAlpha" type="matrix" values="0 0 0 0 0 0 0 0 0 0 0 0 0 0 0 0 0 0 127 0"/>
<feOffset dy="1"/>
<feGaussianBlur stdDeviation="2"/>
<feColorMatrix type="matrix" values="0 0 0 0 0 0 0 0 0 0 0 0 0 0 0 0 0 0 0.05 0"/>
<feBlend mode="normal" in2="BackgroundImageFix" result="effect1_dropShadow"/>
<feBlend mode="normal" in="SourceGraphic" in2="effect1_dropShadow" result="shape"/>
</filter>
<linearGradient id="paint0_linear" x1="5.25024" y1="45.1508" x2="29.0097" y2="-2.04258" gradientUnits="userSpaceOnUse">
<stop offset="0.04398" stop-color="#24272E" stop-opacity="0.75"/>
<stop offset="0.556989" stop-color="#24272E" stop-opacity="0.25"/>
<stop offset="1" stop-color="#24272E" stop-opacity="0.5"/>
</linearGradient>
<linearGradient id="paint1_linear" x1="24.8756" y1="11.5484" x2="24.8756" y2="35.827" gradientUnits="userSpaceOnUse">
<stop stop-color="white"/>
<stop offset="1" stop-color="white" stop-opacity="0"/>
</linearGradient>
<linearGradient id="paint2_linear" x1="0.921029" y1="-3.98202" x2="9.45307" y2="26.8528" gradientUnits="userSpaceOnUse">
<stop offset="0.327597" stop-color="white" stop-opacity="0.8"/>
<stop offset="1" stop-color="white" stop-opacity="0.25"/>
</linearGradient>
</defs>
</svg>

<svg width="139" height="33" fill="none" xmlns="http://www.w3.org/2000/svg"><path fill-rule="evenodd" clip-rule="evenodd" d="M122.142 22.458h-.997c-.393 0-.755 0-1.027-.03a9.329 9.329 0 0 1-.907-.122 2.656 2.656 0 0 1-.785-.271 4.132 4.132 0 0 1-.635-.454c-.211-.181-.362-.423-.483-.664a3.787 3.787 0 0 1-.272-.937 7.743 7.743 0 0 1-.091-1.27v-4.834H114.8v-1.662h2.236V9.797l2.357-.725v3.142h2.659v1.662h-2.659v4.986c0 .332.03.574.06.786.06.211.121.362.212.483.09.12.272.212.513.272.242.06.484.09.786.12.272.031.665.031 1.178.031v1.904zm-14.806 0v-7.675c0-.393-.03-.816-.06-1.24-.03-.422-.061-.755-.091-.996l-.06-.363h2.629v1.36a5.044 5.044 0 0 1 1.208-1.209c.393-.272.846-.393 1.36-.393.302 0 .635.06 1.027.151v2.176a3.808 3.808 0 0 0-1.238-.212c-.695 0-1.239.212-1.662.665-.423.454-.635 1.088-.635 1.934v5.832h-2.478v-.03zm-7.01-1.783c.484 0 .907-.09 1.269-.272.363-.181.665-.423.877-.755a3.48 3.48 0 0 0 .453-1.088c.09-.393.151-.816.151-1.27 0-.966-.242-1.782-.695-2.417-.453-.634-1.148-.936-2.055-.936-.604 0-1.148.15-1.571.453a2.574 2.574 0 0 0-.906 1.208c-.182.484-.273 1.058-.273 1.693 0 .634.091 1.178.273 1.662.18.483.483.906.906 1.238.393.333.937.484 1.571.484zm.03 2.024c-.876 0-1.692-.15-2.387-.423-.695-.302-1.269-.695-1.692-1.178a4.944 4.944 0 0 1-.967-1.692 6.507 6.507 0 0 1-.332-2.055c0-.755.12-1.42.332-2.085a4.945 4.945 0 0 1 .997-1.722c.424-.484.998-.877 1.693-1.179.695-.302 1.48-.423 2.356-.423.877 0 1.693.151 2.357.423.695.272 1.239.665 1.662 1.179.423.483.725 1.057.937 1.722.211.635.302 1.36.302 2.115 0 .726-.121 1.39-.332 2.025a4.953 4.953 0 0 1-.967 1.692c-.423.514-.967.906-1.662 1.178-.635.272-1.42.423-2.297.423zm-16.89 3.717V15.629c0-.605-.06-1.753-.182-3.445h2.63v1.48c.09-.362.422-.755.996-1.147.574-.393 1.3-.575 2.146-.575.906 0 1.692.242 2.387.756.695.483 1.208 1.148 1.54 1.934.363.785.514 1.662.514 2.598 0 .695-.09 1.39-.302 2.025-.211.634-.483 1.239-.876 1.752a4.406 4.406 0 0 1-1.45 1.24 4.27 4.27 0 0 1-1.965.452c-.815 0-1.48-.181-2.054-.574-.574-.393-.876-.725-.967-1.057v5.378h-2.417v-.03zm4.895-5.741c.453 0 .846-.09 1.208-.272.333-.181.605-.423.816-.755.181-.333.332-.665.453-1.058.091-.393.151-.816.151-1.27 0-.634-.09-1.208-.272-1.691-.18-.484-.453-.907-.876-1.209a2.415 2.415 0 0 0-1.48-.483c-.575 0-1.058.15-1.45.453a2.378 2.378 0 0 0-.847 1.178c-.181.484-.272 1.028-.272 1.662 0 .453.06.907.151 1.3.09.392.242.755.454 1.087.211.333.483.574.815.756.302.211.695.302 1.149.302zm-11.03 2.024c-1.722 0-3.081-.483-4.079-1.48-.997-.997-1.48-2.267-1.48-3.868 0-.725.12-1.42.362-2.055a6.112 6.112 0 0 1 .998-1.722c.423-.514.997-.906 1.661-1.178A5.335 5.335 0 0 1 77 11.942c.816 0 1.511.151 2.115.423.605.272 1.088.665 1.42 1.179.363.513.605 1.057.786 1.692.181.634.242 1.33.242 2.085 0 .181-.03.332-.06.453H74.34c.03.997.333 1.753.907 2.236.574.483 1.33.725 2.266.725 1.088 0 2.175-.362 3.233-1.087l.665 1.813c-.635.453-1.3.785-1.934.997-.604.12-1.33.241-2.145.241zm-2.9-6.617h5.076c-.12-.725-.393-1.3-.816-1.662-.423-.393-.936-.574-1.54-.574-.726 0-1.3.211-1.783.604-.484.393-.786.937-.937 1.632zm-6.89-8.219h2.448v14.595h-2.447V7.863zM61.56 22.7c-1.722 0-3.082-.483-4.08-1.48-.996-.997-1.48-2.267-1.48-3.868 0-.725.12-1.42.363-2.055a6.113 6.113 0 0 1 .997-1.722c.423-.514.997-.906 1.662-1.178a5.335 5.335 0 0 1 2.205-.454c.816 0 1.511.151 2.116.423.604.272 1.087.665 1.42 1.179.362.513.604 1.057.785 1.692.182.634.242 1.33.242 2.085 0 .181-.03.332-.06.453h-7.162c.03.997.333 1.753.907 2.236.574.483 1.33.725 2.266.725 1.088 0 2.176-.362 3.233-1.087l.665 1.813c-.635.453-1.3.785-1.934.997-.604.12-1.33.241-2.145.241zm-2.9-6.617h5.075c-.12-.725-.392-1.3-.816-1.662-.422-.393-.936-.574-1.54-.574-.726 0-1.3.211-1.783.604-.453.393-.786.937-.937 1.632zm-4.08 6.376h-.997c-.393 0-.756 0-1.028-.03a9.319 9.319 0 0 1-.906-.122 2.663 2.663 0 0 1-.786-.271 4.13 4.13 0 0 1-.634-.454c-.212-.181-.363-.423-.484-.664a3.813 3.813 0 0 1-.272-.937 7.814 7.814 0 0 1-.09-1.27v-4.834h-2.146v-1.662h2.236V9.797l2.357-.725v3.142h2.66v1.662h-2.66v4.986c0 .332.03.574.06.786.061.211.121.362.212.483.09.12.272.212.514.272.241.06.483.09.785.12.272.031.665.031 1.179.031v1.904zM133.866 9.918c0 .695.121 1.209.393 1.54.272.333.635.515 1.179.515 1.027 0 1.571-.695 1.571-2.055 0-1.39-.514-2.085-1.541-2.085-.514 0-.907.181-1.179.514-.272.362-.423.876-.423 1.57zm4.503 0c0 .725-.121 1.33-.393 1.813a2.242 2.242 0 0 1-1.118 1.057l1.48 1.662h-1.662l-1.118-1.39h-.09c-.937 0-1.662-.272-2.176-.816-.513-.543-.755-1.329-.755-2.356 0-1.028.242-1.813.755-2.327.514-.544 1.239-.816 2.176-.816s1.662.272 2.175.816c.454.544.726 1.33.726 2.357zM131.238 13h-1.3v-2.66h-2.417V13h-1.299V6.836h1.299v2.417h2.417V6.836h1.3V13z" fill="#24272E"/><mask id="a" maskUnits="userSpaceOnUse" x="0" y="0" width="33" height="33"><rect x=".368" y=".236" width="32.547" height="32.547" rx="16.274" fill="#fff"/></mask><g mask="url(#a)"><rect x=".368" y=".236" width="32.547" height="32.547" rx="16.274" fill="url(#paint0_linear)" filter="url(#filter0_i)"/><rect x="12.736" y="11.548" width="24.279" height="24.279" rx="5" transform="rotate(-16.157 12.736 11.548)" fill="url(#paint1_linear)" filter="url(#filter1_d)"/><path d="M21.662 20.48L.737 27.855c-3.859 1.36-7.628-2.237-6.45-6.155L.038 2.563C1.05-.797 5.117-2.099 7.891.051l15.172 11.761c3.129 2.425 2.333 7.352-1.4 8.668z" fill="url(#paint2_linear)" filter="url(#filter2_d)"/></g><defs><filter id="filter0_i" x=".368" y=".236" width="32.547" height="32.547" filterUnits="userSpaceOnUse" color-interpolation-filters="sRGB"><feFlood flood-opacity="0" result="BackgroundImageFix"/><feBlend in="SourceGraphic" in2="BackgroundImageFix" result="shape"/><feColorMatrix in="SourceAlpha" values="0 0 0 0 0 0 0 0 0 0 0 0 0 0 0 0 0 0 127 0" result="hardAlpha"/><feOffset/><feGaussianBlur stdDeviation="1"/><feComposite in2="hardAlpha" operator="arithmetic" k2="-1" k3="1"/><feColorMatrix values="0 0 0 0 0 0 0 0 0 0 0 0 0 0 0 0 0 0 0.25 0"/><feBlend in2="shape" result="effect1_innerShadow"/></filter><filter id="filter1_d" x="8.736" y="1.792" width="38.076" height="38.076" filterUnits="userSpaceOnUse" color-interpolation-filters="sRGB"><feFlood flood-opacity="0" result="BackgroundImageFix"/><feColorMatrix in="SourceAlpha" values="0 0 0 0 0 0 0 0 0 0 0 0 0 0 0 0 0 0 127 0"/><feOffset dy="1"/><feGaussianBlur stdDeviation="2"/><feColorMatrix values="0 0 0 0 0 0 0 0 0 0 0 0 0 0 0 0 0 0 0.05 0"/><feBlend in2="BackgroundImageFix" result="effect1_dropShadow"/><feBlend in="SourceGraphic" in2="effect1_dropShadow" result="shape"/></filter><filter id="filter2_d" x="-16.676" y="-8.835" width="47.061" height="43.355" filterUnits="userSpaceOnUse" color-interpolation-filters="sRGB"><feFlood flood-opacity="0" result="BackgroundImageFix"/><feColorMatrix in="SourceAlpha" values="0 0 0 0 0 0 0 0 0 0 0 0 0 0 0 0 0 0 127 0"/><feOffset dy="1"/><feGaussianBlur stdDeviation="2"/><feColorMatrix values="0 0 0 0 0 0 0 0 0 0 0 0 0 0 0 0 0 0 0.05 0"/><feBlend in2="BackgroundImageFix" result="effect1_dropShadow"/><feBlend in="SourceGraphic" in2="effect1_dropShadow" result="shape"/></filter><linearGradient id="paint0_linear" x1="5.25" y1="45.151" x2="29.01" y2="-2.043" gradientUnits="userSpaceOnUse"><stop offset=".044" stop-color="#24272E" stop-opacity=".75"/><stop offset=".557" stop-color="#24272E" stop-opacity=".25"/><stop offset="1" stop-color="#24272E" stop-opacity=".5"/></linearGradient><linearGradient id="paint1_linear" x1="24.876" y1="11.548" x2="24.876" y2="35.827" gradientUnits="userSpaceOnUse"><stop stop-color="#fff"/><stop offset="1" stop-color="#fff" stop-opacity="0"/></linearGradient><linearGradient id="paint2_linear" x1=".921" y1="-3.982" x2="9.453" y2="26.853" gradientUnits="userSpaceOnUse"><stop offset=".328" stop-color="#fff" stop-opacity=".8"/><stop offset="1" stop-color="#fff" stop-opacity=".25"/></linearGradient></defs></svg>
